X: 11
T: Cup Of Tea, The
Z: Makenzie
S: https://thesession.org/tunes/20#setting47475
R: reel
M: 4/4
L: 1/8
K: Edor
|:BAGF GEEF|GEBE GEE2|BAGF GEEG|FDAG FDD2|
BAGF GEEF|GEBE GEE2|B3 A GABc|dBAG FD D2:|
K:D
|:d2 eg fdec|d2 eg fBBc|d2 (3efg fdec|dBAG FD D2|
d2 eg fdec|dfaf g2 fg|afge fdec|dBAG FD D2:|
|:FAdA FAdA|FAdA FEE2|FAdA FAdA|GBAG FD D2|
FAdA FAdA|FAdA GEE2|fedc dBAF|GBAG FD D2:|

